X:11
T:The Laidley Worm o' Spindleston Heugh
Z:Jack Campin, http://www.campin.me.uk/
S:Northumbrian Minstrelsy
M:C
L:1/8
K:A Minor
E2|({E}A2) A2  A2 E2 |A2 A A A2 E2 |\
       G2  B c d2 c2 |B6        
z2|    E2  E E E2 D D|E2 G2 (E2 D2)|\
       E2  A A B2 G2 |A6          |]

